app/dist/common/images/nv5-global.svg

<svg height="18" viewBox="0 0 18 18" width="18" xmlns="http://www.w3.org/2000/svg"><path d="m0 0h18v18h-18z" fill="#045a92"/><path d="m7.5 6s.74 4 1.13 6h.74l1.13-6h-.75l-.73 4.47-.77-4.47zm6.79 4.92v-1.86c0-.25-.25-.46-.55-.46h-1.24v-2.6h2.5v.6h-1.79v1.4c.47 0 1.02 0 1.4.26.32.21.39.57.39.78v1.92c0 .6-.49 1.04-1.22 1.04-.78 0-1.28-.47-1.28-1.08v-.42h.71v.39c0 .4.28.51.54.51.25 0 .54-.13.54-.48zm-8.79-4.92v6h-.71l-1.09-3.28v3.28h-.7v-6h.71l1.09 3.52v-3.52h.71zm5.9 6v-6h.2v6zm-5 0v-6h.2v6z" fill="#fff"/></svg>

<!-- by TradingView --><svg xmlns="http://www.w3.org/2000/svg" width="18" height="18" viewBox="0 0 18 18"><path fill="#045A92" d="M0 0h18v18H0z"/><path d="M7.5 6s.74 4 1.13 6h.74l1.13-6h-.75l-.73 4.47L8.25 6H7.5ZM14.29 10.92V9.06c0-.25-.25-.46-.55-.46H12.5V6H15v.6h-1.79V8c.47 0 1.02 0 1.4.26.32.21.39.57.39.78v1.92c0 .6-.49 1.04-1.22 1.04-.78 0-1.28-.47-1.28-1.08v-.42h.71v.39c0 .4.28.51.54.51.25 0 .54-.13.54-.48ZM5.5 6v6h-.71L3.7 8.72V12H3V6h.71L4.8 9.52V6h.71ZM11.4 12V6h.2v6h-.2ZM6.4 12V6h.2v6h-.2Z" fill="#fff"/></svg>
